X:199
T: Die Vogelhochzeit (3-40), S. 105f
N: K1174
O: Luxemburg
S: KINTZELE, Guillaume: An der Ucht, Bd. 3 Luxemburg 1928]
N: in der Quelle mit einer 2. Stimme versehen
R: Hochzeitslied?]
M: 2/4
L: 1/16
K: G
B2 | d2B2d2B2 | c2A2c2A2 | B2G2d2B2 | A2d2d2
DD | G2G2G2BB | A2A2A2cc | B2G2A2F2 | G2F2G2B2 | d4z2
DD | G2G2G2BB | A2A2A2cc | B2G2A2F2 | G4z2
DD | G2G2G2BB | A2A2A2cc | B2G2A2F2 | G2F2G2B2 | d2z4
DD | G2G2G2BB | A2A2A2cc | B2G2A2F2 | G4z2

